app/img/main/logo_zeta.svg

<svg width="96" height="40" viewBox="0 0 96 40" fill="none" xmlns="http://www.w3.org/2000/svg">
<path fill-rule="evenodd" clip-rule="evenodd" d="M95.2622 38.0159V36.0035H93.1177V38.0159H92.4779V33.5831H93.1177V35.4477H95.2622V33.5831H95.909V38.0159H95.2622ZM95.0302 27.511H90.6288C90.1296 27.511 89.6023 27.131 89.4476 26.6596L88.2383 22.7265C88.0906 22.241 87.5563 21.861 87.0782 21.861H78.7465C78.2473 21.861 77.72 22.241 77.5653 22.7124L76.2505 26.6596C76.1029 27.124 75.5685 27.511 75.0693 27.511H70.8507C70.3515 27.511 70.0844 27.1451 70.2531 26.6596L79.4355 0.851363C79.6043 0.386983 80.1527 0 80.6448 0H85.3064C85.8056 0 86.354 0.379947 86.5016 0.851363L95.6137 26.6596C95.6418 26.7441 95.6559 26.8215 95.6629 26.8918V26.9622C95.6629 27.2788 95.4169 27.511 95.0302 27.511ZM86.1008 16.2604L83.2322 7.16278C83.0845 6.6984 82.8314 6.6984 82.6697 7.16278L79.6956 16.2604C79.5269 16.7459 79.8151 17.1258 80.3073 17.1258H85.468C85.9672 17.1258 86.2485 16.7318 86.1008 16.2604ZM70.2321 4.8971H63.841C63.3629 4.8971 62.941 5.29815 62.941 5.79771V26.6104C62.941 27.1099 62.5402 27.511 62.0481 27.511H58.0615C57.5623 27.511 57.1686 27.1099 57.1686 26.6104V5.79771C57.1686 5.29815 56.7538 4.8971 56.2546 4.8971H49.8283C49.3502 4.8971 48.9283 4.48197 48.9283 3.99648V0.900616C48.9354 0.415127 49.3502 0 49.8283 0H70.2321C70.7313 0 71.125 0.415127 71.125 0.900616V3.99648C71.125 4.48197 70.7313 4.8971 70.2321 4.8971ZM45.2509 38.0159V34.139H43.7322V33.5831H47.3531V34.139H45.9047V38.0159H45.2509ZM44.1543 27.511H25.8598C25.3817 27.511 24.9669 27.1099 24.9669 26.6104V0.900616C24.9669 0.415127 25.3817 0 25.8598 0H44.1332C44.6324 0 45.0332 0.415127 45.0332 0.900616V3.99648C45.0332 4.48197 44.6324 4.8971 44.1332 4.8971H31.4705C30.9713 4.8971 30.5565 5.29815 30.5565 5.79771V9.82937C30.5565 10.3289 30.9713 10.7441 31.4705 10.7441H42.9591C43.4372 10.7441 43.859 11.1451 43.859 11.6447V14.6139C43.859 15.1135 43.4442 15.5145 42.9591 15.5145H31.4705C30.9713 15.5145 30.5565 15.9296 30.5565 16.4292V21.6781C30.5565 22.1777 30.9713 22.5928 31.4705 22.5928H44.1543C44.6535 22.5928 45.0543 22.9938 45.0543 23.4934V26.6104C45.0543 27.1099 44.6535 27.511 44.1543 27.511ZM19.6022 37.1012C19.8202 37.3686 20.1436 37.5023 20.5795 37.5023C20.8397 37.5023 21.0506 37.46 21.2264 37.3826C21.3951 37.2982 21.5709 37.1716 21.7467 37.0027L22.1896 37.3897C22.0771 37.5023 21.9646 37.6008 21.8521 37.6852C21.7396 37.7696 21.6201 37.84 21.4936 37.8963C21.367 37.9526 21.2264 37.9948 21.0717 38.03C20.9241 38.0581 20.7553 38.0722 20.5655 38.0722C20.2702 38.0722 20.003 38.03 19.7639 37.9385C19.5249 37.847 19.321 37.7133 19.1523 37.5234C18.9835 37.3404 18.857 37.1012 18.7656 36.8127C18.6741 36.5242 18.632 36.1865 18.632 35.7995C18.632 35.0748 18.7937 34.5119 19.1171 34.1179C19.4405 33.7239 19.8835 33.5269 20.453 33.5269C21.0365 33.5269 21.4865 33.7169 21.7959 34.0968C22.1123 34.4767 22.267 35.0045 22.267 35.6799V35.9684H19.2788C19.2718 36.4609 19.3843 36.8338 19.6022 37.1012ZM21.6272 35.4899C21.6202 35.3984 21.6131 35.321 21.6061 35.2577C21.5991 35.1944 21.592 35.131 21.585 35.0748C21.578 35.0185 21.5639 34.9692 21.5428 34.92C21.5217 34.8707 21.5006 34.8144 21.4795 34.7511C21.3811 34.547 21.2475 34.3852 21.0717 34.2656C20.896 34.146 20.685 34.0827 20.446 34.0827C20.2069 34.0827 19.996 34.146 19.8202 34.2656C19.6445 34.3852 19.5038 34.547 19.4124 34.7511C19.3843 34.8144 19.3632 34.8637 19.3421 34.92C19.3281 34.9692 19.314 35.0255 19.307 35.0748C19.2999 35.131 19.2929 35.1873 19.2859 35.2577C19.2859 35.321 19.2789 35.3984 19.2718 35.4899H21.6272ZM20.4179 27.5885H0.899961C0.400764 27.5885 0 27.1734 0 26.6879V23.6413C0 23.1417 0.246083 22.424 0.548414 22.023L13.5978 5.66412C13.9142 5.28417 13.7455 4.96755 13.2674 4.96755L1.49056 4.99569C1.01246 4.99569 0.59763 4.59464 0.59763 4.09508V1.01328C0.59763 0.513724 1.01246 0.112668 1.49056 0.112668L20.3616 0.0774881C20.8608 0.0774881 21.2756 0.478543 21.2756 0.978104V3.79253C21.2756 4.29209 21.0085 5.00977 20.7132 5.38971L7.52311 22.03C7.20672 22.4099 7.37546 22.7477 7.85356 22.7477H20.4179C20.9171 22.7477 21.3178 23.1487 21.3178 23.6483V26.6949C21.3108 27.1734 20.9171 27.5885 20.4179 27.5885ZM0.928114 37.0026L3.20614 33.5901H3.85299V38.0229H3.20614V34.5893L0.928114 38.0229H0.288298V33.5901H0.928114V37.0026ZM7.63582 35.4477H9.78026V33.5831H10.4271V38.0159H9.78026V36.0035H7.63582V38.0159H6.99601V33.5831H7.63582V35.4477ZM14.9899 34.146V38.0229H14.3431V34.146H12.8244V33.5901H16.4453V34.146H14.9899ZM25.8175 34.1108C26.0003 33.8857 26.1972 33.7309 26.3941 33.6535C26.5909 33.5761 26.8159 33.5339 27.069 33.5339C27.294 33.5339 27.505 33.5691 27.6878 33.6394C27.8706 33.7098 28.0252 33.8013 28.1448 33.9209C28.2502 34.0264 28.3416 34.1531 28.412 34.3008C28.4823 34.4415 28.5385 34.5963 28.5807 34.7582C28.6229 34.92 28.644 35.0889 28.6651 35.2648C28.6791 35.4407 28.6862 35.6236 28.6862 35.7995C28.6862 36.1583 28.651 36.5101 28.5807 36.8408C28.5104 37.1715 28.3698 37.453 28.1448 37.6852C28.0252 37.8048 27.8706 37.9033 27.6878 37.9666C27.505 38.037 27.294 38.0721 27.069 38.0721C26.823 38.0721 26.598 38.0299 26.4011 37.9525C26.1972 37.8751 26.0074 37.7203 25.8175 37.4952V40H25.1707V33.5831H25.8175V34.1108ZM25.8525 36.4326C25.8736 36.6367 25.9298 36.8196 26.0072 36.9744C26.0915 37.1292 26.204 37.2558 26.3447 37.3543C26.4853 37.4529 26.6821 37.4951 26.9282 37.4951C27.1673 37.4951 27.3641 37.4458 27.5118 37.3543C27.6594 37.2558 27.7719 37.1292 27.8493 36.9744C27.9266 36.8196 27.9758 36.6367 28.004 36.4326C28.0251 36.2286 28.0391 36.0175 28.0391 35.7994C28.0391 35.5813 28.0251 35.3702 28.004 35.1661C27.9829 34.9621 27.9266 34.7791 27.8493 34.6244C27.7719 34.4696 27.6594 34.3429 27.5118 34.2444C27.3641 34.1459 27.1743 34.1037 26.9282 34.1037C26.6821 34.1037 26.4853 34.1529 26.3447 34.2444C26.204 34.3429 26.0915 34.4696 26.0072 34.6244C25.9228 34.7791 25.8736 34.9621 25.8525 35.1661C25.8314 35.3702 25.8173 35.5813 25.8173 35.7994C25.8173 36.0175 25.8314 36.2286 25.8525 36.4326ZM32.2439 35.4477H34.3884V33.5831H35.0352V38.0159H34.3884V36.0035H32.2439V38.0159H31.6041V33.5831H32.2439V35.4477ZM39.7598 33.5339C40.3434 33.5339 40.7934 33.7239 41.1027 34.1038C41.4191 34.4837 41.5738 35.0115 41.5738 35.6869V35.9754H38.5856C38.5856 36.4609 38.6981 36.8408 38.9161 37.1082C39.1341 37.3756 39.4575 37.5093 39.8934 37.5093C40.1535 37.5093 40.3645 37.467 40.5402 37.3896C40.709 37.3052 40.8848 37.1786 41.0605 37.0097L41.5035 37.3967C41.391 37.5093 41.2785 37.6078 41.166 37.6922C41.0535 37.7766 40.934 37.847 40.8074 37.9033C40.6809 37.9596 40.5402 38.0018 40.3856 38.037C40.2379 38.0651 40.0692 38.0792 39.8793 38.0792C39.584 38.0792 39.3169 38.037 39.0778 37.9455C38.8388 37.854 38.6349 37.7203 38.4661 37.5304C38.2974 37.3474 38.1708 37.1082 38.0794 36.8197C37.988 36.5312 37.9458 36.1935 37.9458 35.8065C37.9458 35.0818 38.1075 34.5189 38.431 34.1249C38.7474 33.7309 39.1903 33.5339 39.7598 33.5339ZM40.9343 35.4899C40.9272 35.3984 40.9202 35.321 40.9132 35.2577C40.9061 35.1944 40.8991 35.131 40.8921 35.0748C40.885 35.0185 40.871 34.9692 40.8499 34.92C40.8288 34.8707 40.8077 34.8144 40.7866 34.7511C40.6882 34.547 40.5546 34.3852 40.3788 34.2656C40.203 34.146 39.9921 34.0827 39.7531 34.0827C39.514 34.0827 39.3031 34.146 39.1273 34.2656C38.9515 34.3852 38.8109 34.547 38.7195 34.7511C38.6914 34.8144 38.6703 34.8637 38.6492 34.92C38.6351 34.9692 38.6211 35.0255 38.614 35.0748C38.607 35.131 38.6 35.1873 38.5929 35.2577C38.5929 35.321 38.5859 35.3984 38.5789 35.4899H40.9343ZM51.7545 35.8911H49.2867V35.286H51.7545V35.8911ZM56.9294 36.5664L58.4129 33.5831H59.0527V38.0159H58.4059V34.8637L57.1754 37.3122H56.6833L55.4318 34.8637V38.0159H54.792V33.5831H55.4318L56.9294 36.5664ZM63.398 35.4899H64.7198V35.0678C64.7198 34.7441 64.6355 34.4979 64.4667 34.336C64.298 34.1742 64.0027 34.0898 63.5879 34.0898C63.3066 34.0898 63.0816 34.132 62.9199 34.2094C62.7582 34.2868 62.6106 34.4205 62.4699 34.6034L62.027 34.1953C62.2168 33.935 62.4348 33.7591 62.6809 33.6676C62.927 33.5761 63.2293 33.5269 63.5949 33.5269C64.1925 33.5269 64.6425 33.6535 64.9308 33.9068C65.219 34.1601 65.3667 34.526 65.3667 35.0045V38.0159H64.7198V37.5937C64.5441 37.7696 64.3613 37.8892 64.1714 37.9666C63.9816 38.037 63.7355 38.0722 63.4402 38.0722C63.1309 38.0722 62.8848 38.044 62.702 37.9807C62.5192 37.9174 62.3434 37.8189 62.1887 37.6641C62.0762 37.5585 61.9918 37.4249 61.9356 37.263C61.8793 37.1012 61.8512 36.9394 61.8512 36.7635C61.8512 36.3694 61.9848 36.0528 62.245 35.8277C62.5192 35.6025 62.8988 35.4899 63.398 35.4899ZM62.7301 37.3265C62.8918 37.4461 63.152 37.5094 63.5106 37.5094C63.6934 37.5094 63.8691 37.4953 64.0309 37.4601C64.1926 37.425 64.3473 37.3476 64.4879 37.2139C64.6355 37.0732 64.7129 36.8128 64.7129 36.4469V35.9685H63.4895C62.8215 35.9685 62.4911 36.2288 62.4911 36.7495C62.4911 37.0169 62.5684 37.2068 62.7301 37.3265ZM69.1637 34.146V38.0229H68.5169V33.5901H71.3293V34.146H69.1637ZM74.8586 35.4899H76.1804V35.0678C76.1804 34.7441 76.0961 34.4979 75.9273 34.336C75.7586 34.1742 75.4633 34.0898 75.0485 34.0898C74.7672 34.0898 74.5422 34.132 74.3805 34.2094C74.2188 34.2868 74.0712 34.4205 73.9305 34.6034L73.4876 34.1953C73.6774 33.935 73.8954 33.7591 74.1415 33.6676C74.3876 33.5761 74.6899 33.5269 75.0555 33.5269C75.6531 33.5269 76.1031 33.6535 76.3914 33.9068C76.6796 34.1601 76.8273 34.526 76.8273 35.0045V38.0159H76.1804V37.5937C76.0047 37.7696 75.8219 37.8892 75.632 37.9666C75.4422 38.037 75.1961 38.0722 74.9008 38.0722C74.5915 38.0722 74.3454 38.044 74.1626 37.9807C73.9798 37.9174 73.804 37.8189 73.6493 37.6641C73.5368 37.5585 73.4524 37.4249 73.3962 37.263C73.3399 37.1012 73.3118 36.9394 73.3118 36.7635C73.3118 36.3694 73.4454 36.0528 73.7056 35.8277C73.9798 35.6025 74.3594 35.4899 74.8586 35.4899ZM74.1906 37.3265C74.3523 37.4461 74.6124 37.5094 74.971 37.5094C75.1538 37.5094 75.3296 37.4953 75.4913 37.4601C75.653 37.425 75.8077 37.3476 75.9483 37.2139C76.0959 37.0732 76.1733 36.8128 76.1733 36.4469V35.9685H74.9429C74.2749 35.9685 73.9445 36.2288 73.9445 36.7495C73.9445 37.0169 74.0288 37.2068 74.1906 37.3265ZM80.3568 37.3967C80.5537 37.467 80.7857 37.5022 81.067 37.5022C81.2006 37.5022 81.3341 37.4881 81.4607 37.4529C81.5943 37.4178 81.7138 37.3685 81.8193 37.3052C81.9247 37.2419 82.0161 37.1574 82.0794 37.0589C82.1427 36.9604 82.1778 36.8549 82.1778 36.7353C82.1778 36.482 82.0935 36.299 81.9247 36.1794C81.756 36.0598 81.538 35.9965 81.2709 35.9965H80.624V35.4617H81.2779C81.524 35.4617 81.7208 35.3984 81.8755 35.2788C82.0302 35.1521 82.1075 34.9833 82.1075 34.7511C82.1075 34.5259 82.0161 34.35 81.8404 34.2445C81.6576 34.1319 81.4185 34.0756 81.1091 34.0756C80.6732 34.0756 80.2725 34.2023 79.9209 34.4485L79.5483 34.0193C79.7944 33.8434 80.0475 33.7238 80.3147 33.6464C80.5818 33.5761 80.8631 33.5409 81.1724 33.5409C81.3904 33.5409 81.5943 33.569 81.7841 33.6183C81.974 33.6675 82.1427 33.7449 82.2833 33.8505C82.4239 33.956 82.5364 34.0756 82.6138 34.2304C82.6981 34.3782 82.7333 34.5541 82.7333 34.7441C82.7333 34.9692 82.67 35.1662 82.5505 35.3421C82.431 35.518 82.2552 35.6517 82.0302 35.7361C82.2622 35.8065 82.4521 35.9402 82.5927 36.1231C82.7333 36.3061 82.8036 36.5312 82.8036 36.7775C82.8036 36.9745 82.7614 37.1574 82.67 37.3193C82.5786 37.4811 82.4591 37.6148 82.3044 37.7273C82.1497 37.8399 81.974 37.9244 81.7701 37.9806C81.5662 38.044 81.3552 38.0721 81.1302 38.0721C80.7717 38.0721 80.4482 38.0299 80.174 37.9384C79.8928 37.847 79.6256 37.6851 79.3584 37.4459L79.7662 37.0237C79.9701 37.1926 80.167 37.3263 80.3568 37.3967ZM86.4032 37.0026L88.6813 33.5901H89.3281V38.0229H88.6813V34.5893L86.4032 38.0229H85.7634V33.5901H86.4032V37.0026Z" fill="white"/>
</svg>

<svg width="96" height="40" fill="none" xmlns="http://www.w3.org/2000/svg"><path fill-rule="evenodd" clip-rule="evenodd" d="M95.262 38.016v-2.012h-2.144v2.012h-.64v-4.433h.64v1.865h2.144v-1.865h.647v4.433h-.647zM95.03 27.51h-4.4c-.5 0-1.027-.38-1.181-.851l-1.21-3.933c-.147-.486-.682-.866-1.16-.866h-8.332c-.499 0-1.026.38-1.18.851L76.25 26.66c-.147.464-.681.851-1.18.851h-4.22c-.498 0-.766-.366-.597-.851L79.436.85c.168-.463.717-.85 1.209-.85h4.661c.5 0 1.048.38 1.196.851l9.112 25.809c.028.084.042.162.049.232v.07c0 .317-.246.549-.633.549zM86.1 16.26l-2.868-9.098c-.147-.465-.4-.465-.562 0l-2.974 9.097c-.17.486.12.866.611.866h5.161c.5 0 .78-.394.633-.866zM70.233 4.896h-6.391c-.478 0-.9.401-.9.9V26.61c0 .5-.4.901-.893.901h-3.986a.892.892 0 01-.893-.9V5.797c0-.5-.415-.9-.914-.9h-6.427a.92.92 0 01-.9-.902V.901c.007-.486.422-.901.9-.901h20.404a.9.9 0 01.893.9v3.096a.9.9 0 01-.893.901zm-24.982 33.12v-3.877h-1.519v-.556h3.621v.556h-1.448v3.877h-.654zM44.154 27.51H25.86a.905.905 0 01-.893-.9V.9c0-.486.415-.901.893-.901h18.273c.5 0 .9.415.9.9v3.096c0 .486-.4.901-.9.901H31.47a.91.91 0 00-.913.9V9.83c0 .5.414.915.914.915h11.488c.478 0 .9.401.9.9v2.97c0 .5-.415.9-.9.9H31.47a.922.922 0 00-.913.915v5.25a.92.92 0 00.914.914h12.683c.5 0 .9.4.9.9v3.117c0 .5-.4.901-.9.901zM19.602 37.1c.218.268.542.401.977.401.26 0 .472-.042.647-.12.17-.084.345-.21.52-.38l.444.388a3.162 3.162 0 01-.338.295 1.848 1.848 0 01-.358.211 2.285 2.285 0 01-.422.134 2.726 2.726 0 01-.506.042c-.296 0-.563-.042-.802-.134a1.53 1.53 0 01-.612-.415 1.86 1.86 0 01-.386-.71 3.367 3.367 0 01-.134-1.014c0-.724.162-1.287.485-1.681.323-.394.767-.591 1.336-.591.584 0 1.034.19 1.343.57.316.38.471.907.471 1.583v.288h-2.988c-.007.493.105.866.323 1.133zm2.025-1.611a7.043 7.043 0 00-.042-.415.557.557 0 00-.042-.155 2.202 2.202 0 01-.063-.169 1.2 1.2 0 00-.408-.485 1.092 1.092 0 00-.626-.183c-.24 0-.45.063-.626.183a1.15 1.15 0 00-.408.485 2.94 2.94 0 00-.07.169c-.014.05-.028.105-.035.155a6.523 6.523 0 00-.021.183c0 .063-.007.14-.014.232h2.355zm-1.21-7.902H.9c-.5 0-.9-.415-.9-.9V23.64c0-.5.246-1.217.548-1.618l13.05-16.359c.316-.38.147-.696-.33-.696L1.49 4.996a.905.905 0 01-.893-.9V1.012c0-.5.414-.9.893-.9L20.36.077c.5 0 .915.402.915.901v2.815c0 .5-.267 1.217-.563 1.597L7.523 22.03c-.316.38-.148.718.33.718h12.565c.5 0 .9.4.9.9v3.047a.91.91 0 01-.9.893zM.929 37.004l2.278-3.413h.647v4.433h-.647V34.59L.928 38.023h-.64V33.59h.64v3.413zm6.708-1.555H9.78v-1.865h.647v4.433H9.78v-2.012H7.636v2.012h-.64v-4.433h.64v1.865zm7.354-1.302v3.877h-.647v-3.877h-1.519v-.556h3.621v.556H14.99zm10.827-.035c.183-.225.38-.38.577-.457.197-.078.422-.12.675-.12.225 0 .436.035.619.105.183.07.337.162.457.282.105.105.197.232.267.38.07.14.127.295.169.457.042.162.063.33.084.507.014.176.021.359.021.535 0 .358-.035.71-.105 1.04a1.68 1.68 0 01-.436.845c-.12.12-.274.218-.457.282a1.73 1.73 0 01-.619.105 1.81 1.81 0 01-.668-.12c-.204-.077-.394-.232-.584-.457V40h-.646v-6.417h.646v.528zm.035 2.322c.022.204.078.387.155.541.084.155.197.282.338.38.14.099.337.141.583.141.24 0 .436-.05.584-.14a.975.975 0 00.337-.38 1.75 1.75 0 00.155-.542c.021-.204.035-.416.035-.634 0-.218-.014-.429-.035-.633a1.575 1.575 0 00-.155-.542.975.975 0 00-.337-.38c-.148-.098-.338-.14-.584-.14-.246 0-.443.049-.583.14a1.114 1.114 0 00-.338.38 1.434 1.434 0 00-.155.542 6.142 6.142 0 00-.035.633c0 .218.014.43.035.634zm6.392-.985h2.144v-1.865h.647v4.433h-.647v-2.012h-2.144v2.012h-.64v-4.433h.64v1.865zm7.516-1.914c.583 0 1.033.19 1.343.57.316.38.47.907.47 1.583v.288h-2.987c0 .486.112.866.33 1.133.218.268.542.401.977.401.26 0 .471-.042.647-.12.169-.084.345-.21.52-.38l.444.388a3.162 3.162 0 01-.338.295 1.846 1.846 0 01-.359.211 2.284 2.284 0 01-.421.134 2.727 2.727 0 01-.507.042c-.295 0-.562-.042-.801-.133a1.53 1.53 0 01-.612-.416 1.862 1.862 0 01-.387-.71 3.37 3.37 0 01-.133-1.014c0-.724.162-1.287.485-1.681.316-.394.76-.591 1.329-.591zm1.174 1.956a7.329 7.329 0 00-.02-.232l-.022-.183a.56.56 0 00-.042-.155 2.202 2.202 0 01-.063-.169 1.2 1.2 0 00-.408-.485 1.093 1.093 0 00-.626-.183c-.239 0-.45.063-.626.183a1.16 1.16 0 00-.408.485 2.94 2.94 0 00-.07.169c-.014.05-.028.105-.035.155a7.37 7.37 0 00-.021.183c0 .063-.007.14-.014.232h2.355zm10.82.401h-2.467v-.605h2.468v.605zm5.175.675l1.484-2.983h.64v4.433h-.647v-3.152l-1.23 2.448h-.493l-1.251-2.448v3.152h-.64v-4.433h.64l1.497 2.983zm6.469-1.076h1.322v-.422c0-.324-.085-.57-.253-.732-.169-.162-.464-.246-.88-.246-.28 0-.505.042-.667.12-.162.077-.31.21-.45.393l-.443-.408c.19-.26.408-.436.654-.527.246-.092.548-.141.914-.141.597 0 1.047.127 1.336.38.288.253.436.619.436 1.098v3.01h-.647v-.421a1.652 1.652 0 01-.549.373c-.19.07-.436.105-.73.105-.31 0-.556-.028-.739-.091a1.325 1.325 0 01-.513-.317.98.98 0 01-.253-.401 1.49 1.49 0 01-.085-.5c0-.394.134-.71.394-.935.274-.226.654-.338 1.153-.338zm-.668 1.837c.162.12.422.182.78.182.183 0 .36-.014.52-.049a.944.944 0 00.458-.246c.147-.14.225-.401.225-.767v-.479H63.49c-.669 0-.999.26-.999.781 0 .268.077.458.24.578zm6.434-3.181v3.877h-.647V33.59h2.812v.556h-2.165zm5.695 1.344h1.321v-.422c0-.324-.084-.57-.253-.732-.168-.162-.464-.246-.879-.246-.28 0-.506.042-.668.12-.161.077-.309.21-.45.393l-.442-.408c.19-.26.407-.436.653-.527a2.62 2.62 0 01.914-.141c.598 0 1.048.127 1.336.38.289.253.436.619.436 1.098v3.01h-.647v-.421a1.652 1.652 0 01-.548.373c-.19.07-.436.105-.731.105-.31 0-.556-.028-.738-.091a1.325 1.325 0 01-.514-.317.98.98 0 01-.253-.401 1.49 1.49 0 01-.084-.5c0-.394.133-.71.394-.935.274-.226.653-.338 1.153-.338zm-.668 1.837c.161.12.421.182.78.182.183 0 .359-.014.52-.049a.944.944 0 00.457-.246c.148-.14.225-.401.225-.767v-.479h-1.23c-.668 0-.998.26-.998.781 0 .268.084.458.246.578zm6.166.07a2.1 2.1 0 00.71.105 1.473 1.473 0 00.752-.197.795.795 0 00.26-.246.584.584 0 00.099-.324c0-.253-.084-.436-.253-.556-.169-.12-.387-.183-.654-.183h-.647v-.534h.654a.946.946 0 00.597-.183c.155-.127.233-.296.233-.528 0-.225-.092-.401-.268-.506-.182-.113-.422-.17-.73-.17-.437 0-.838.127-1.19.373l-.372-.429c.246-.176.5-.295.767-.373.267-.07.548-.105.857-.105.218 0 .422.028.612.077.19.05.359.127.5.232a1.07 1.07 0 01.45.894 1.037 1.037 0 01-.704.992 1.057 1.057 0 01.773 1.041c0 .197-.042.38-.133.542a1.24 1.24 0 01-.366.408 1.63 1.63 0 01-.534.254 2.13 2.13 0 01-.64.091c-.358 0-.682-.042-.956-.134a2.282 2.282 0 01-.816-.492l.408-.422c.204.169.401.302.59.373zm6.046-.394l2.278-3.413h.647v4.433h-.647V34.59l-2.278 3.434h-.64V33.59h.64v3.413z" fill="#fff"/></svg>
